public/images/waste-bin.svg

<?xml version="1.0" encoding="UTF-8"?>
<svg width="10px" height="14px" viewBox="0 0 10 14" version="1.1" xmlns="http://www.w3.org/2000/svg" xmlns:xlink="http://www.w3.org/1999/xlink">
    <!-- Generator: Sketch 51.2 (57519) - http://www.bohemiancoding.com/sketch -->
    <title>waste-bin</title>
    <desc>Created with Sketch.</desc>
    <defs></defs>
    <g id="Page-1" stroke="none" stroke-width="1" fill="none" fill-rule="evenodd">
        <g id="Channels" transform="translate(-1382.000000, -192.000000)" fill="#F44336" fill-rule="nonzero">
            <g id="waste-bin" transform="translate(1382.000000, 192.000000)">
                <path d="M1.38773479,13.0497922 C1.38773479,13.0497922 1.59085137,14 2.63635071,14 L7.36364929,14 C8.40909784,14 8.61221442,13.0497922 8.61221442,13.0497922 L9.54546378,3.73335419 L0.45453622,3.73335419 L1.38773479,13.0497922 Z M6.81819567,5.13337505 C6.81819567,4.87561644 7.0216678,4.66671881 7.27273189,4.66671881 C7.52379598,4.66671881 7.7273189,4.87561644 7.7273189,5.13337505 L7.27273189,12.1333751 C7.27273189,12.3911337 7.06920897,12.6000313 6.81819567,12.6000313 C6.56718237,12.6000313 6.36365945,12.3910815 6.36365945,12.1333751 L6.81819567,5.13337505 Z M4.54546378,5.13337505 C4.54546378,4.87561644 4.7489867,4.66671881 5,4.66671881 C5.25106409,4.66671881 5.45453622,4.87561644 5.45453622,5.13337505 L5.45453622,12.1333751 C5.45453622,12.3911337 5.25106409,12.6000313 5,12.6000313 C4.74893591,12.6000313 4.54546378,12.3910815 4.54546378,12.1333751 L4.54546378,5.13337505 Z M2.72726811,4.66666667 C2.9783322,4.66666667 3.18180433,4.8755643 3.18180433,5.1333229 L3.63639134,12.1333229 C3.63639134,12.3910815 3.43286842,12.5999791 3.18180433,12.5999791 C2.93079103,12.5999791 2.72726811,12.3910294 2.72726811,12.1333229 L2.27273189,5.13337505 C2.27273189,4.87561644 2.47625481,4.66666667 2.72726811,4.66666667 Z M9.27271157,1.86740714 L7.27273189,1.86740714 L7.27273189,0.933364621 C7.27273189,0.225375825 7.0497049,0 6.36365945,0 L3.63634055,0 C3.00708038,0 2.72726811,0.312929275 2.72726811,0.933364621 L2.72726811,1.86745929 L0.727288427,1.86745929 C0.325321766,1.86745929 0,2.18070144 0,2.5677826 C0,2.9549159 0.325321766,3.26815805 0.727288427,3.26815805 L9.27271157,3.26815805 C9.67467823,3.26815805 10,2.9549159 10,2.5677826 C10,2.18070144 9.67467823,1.86740714 9.27271157,1.86740714 Z M6.36365945,1.86740714 L3.63639134,1.86740714 L3.63644213,0.933312475 L6.36371024,0.933312475 L6.36371024,1.86740714 L6.36365945,1.86740714 Z" id="Shape"></path>
            </g>
        </g>
    </g>
</svg>

<svg xmlns="http://www.w3.org/2000/svg" viewBox="0 0 10 14"><defs><style>.cls-1{fill:#f44336;}</style></defs><title>waste-bin</title><g id="Laag_1" data-name="Laag 1"><path class="cls-1" d="M.45,3.73l.94,9.32A1.25,1.25,0,0,0,2.64,14H7.36a1.25,1.25,0,0,0,1.25-.95l.94-9.32ZM3.18,12.6a.46.46,0,0,1-.45-.47l-.46-7a.47.47,0,0,1,.46-.46.46.46,0,0,1,.45.46l.46,7A.47.47,0,0,1,3.18,12.6Zm2.27-.47a.45.45,0,1,1-.9,0v-7a.45.45,0,1,1,.9,0Zm1.82,0a.46.46,0,0,1-.45.47.47.47,0,0,1-.46-.47l.46-7a.46.46,0,0,1,.45-.46.47.47,0,0,1,.46.46Z"/></g><g id="lid"><path class="cls-1" d="M9.27,1.87h-2V.93c0-.7-.22-.93-.91-.93H3.64C3,0,2.73.31,2.73.93v.94h-2a.72.72,0,0,0-.73.7.72.72,0,0,0,.73.7H9.27a.72.72,0,0,0,.73-.7A.72.72,0,0,0,9.27,1.87Zm-2.91,0H3.64V.93H6.36Z"/></g></svg>
